assets/icons/24px/stroke/chevron-double-up-24px.svg

<svg width="24" height="24" viewBox="0 0 24 24" fill="none" xmlns="http://www.w3.org/2000/svg">
<path fill-rule="evenodd" clip-rule="evenodd" d="M11.3817 6.12339C11.0107 6.40646 10.5653 6.84882 9.87868 7.53547L4.70711 12.707C4.31658 13.0976 3.68342 13.0976 3.29289 12.707C2.90237 12.3165 2.90237 11.6834 3.29289 11.2928L8.46447 6.12126C8.48004 6.10569 8.49556 6.09017 8.51102 6.0747C9.13782 5.44783 9.67789 4.90771 10.1685 4.53335C10.6944 4.13215 11.2792 3.82837 12 3.82837C12.7208 3.82837 13.3056 4.13215 13.8315 4.53335C14.3221 4.90771 14.8622 5.44784 15.489 6.07472L20.7071 11.2928C21.0976 11.6834 21.0976 12.3165 20.7071 12.707C20.3166 13.0976 19.6834 13.0976 19.2929 12.707L14.1213 7.53547C13.4347 6.84882 12.9893 6.40646 12.6183 6.12339C12.2704 5.85793 12.1077 5.82837 12 5.82837C11.8923 5.82837 11.7296 5.85793 11.3817 6.12339Z" fill="white"/>
<path fill-rule="evenodd" clip-rule="evenodd" d="M11.3817 14.1234C11.0107 14.4065 10.5653 14.8488 9.87868 15.5355L4.70711 20.707C4.31658 21.0976 3.68342 21.0976 3.29289 20.707C2.90237 20.3165 2.90237 19.6834 3.29289 19.2928L8.46447 14.1213C8.48004 14.1057 8.49556 14.0902 8.51102 14.0747C9.13782 13.4478 9.67789 12.9077 10.1685 12.5333C10.6944 12.1321 11.2792 11.8284 12 11.8284C12.7208 11.8284 13.3056 12.1321 13.8315 12.5333C14.3221 12.9077 14.8622 13.4478 15.489 14.0747L20.7071 19.2928C21.0976 19.6834 21.0976 20.3165 20.7071 20.707C20.3166 21.0976 19.6834 21.0976 19.2929 20.707L14.1213 15.5355C13.4347 14.8488 12.9893 14.4065 12.6183 14.1234C12.2704 13.8579 12.1077 13.8284 12 13.8284C11.8923 13.8284 11.7296 13.8579 11.3817 14.1234Z" fill="white"/>
</svg>

<svg width="24" height="24" fill="none" xmlns="http://www.w3.org/2000/svg"><path fill-rule="evenodd" clip-rule="evenodd" d="M11.382 6.123c-.371.283-.817.726-1.503 1.412l-5.172 5.172a1 1 0 1 1-1.414-1.414L8.464 6.12l.047-.046c.627-.627 1.167-1.167 1.658-1.542.525-.4 1.11-.705 1.831-.705.72 0 1.306.304 1.832.705.49.375 1.03.915 1.657 1.542l5.218 5.218a1 1 0 0 1-1.414 1.414L14.12 7.535c-.686-.686-1.132-1.129-1.503-1.412-.348-.265-.51-.295-.618-.295-.108 0-.27.03-.618.295z" fill="#fff"/><path fill-rule="evenodd" clip-rule="evenodd" d="M11.382 14.123c-.371.284-.817.726-1.503 1.413l-5.172 5.171a1 1 0 1 1-1.414-1.414l5.171-5.172.047-.046c.627-.627 1.167-1.167 1.658-1.542.525-.4 1.11-.705 1.831-.705.72 0 1.306.304 1.832.705.49.375 1.03.915 1.657 1.542l5.218 5.218a1 1 0 0 1-1.414 1.414l-5.172-5.171c-.686-.687-1.132-1.13-1.503-1.413-.348-.265-.51-.295-.618-.295-.108 0-.27.03-.618.295z" fill="#fff"/></svg>
